!!!COM: Bach, Johann Sebastian
!!!OPR: Joh. Seb. Bachs vierstimmige Choralges‰nge
!!!XEN: Four-part Chorales
!!!OTL: 105. Jesu, meine Freude
!!!SCT: BWV 358
!!!SCA: Thematisch-systematisches Verzeichnis der musikalischen Werke Johann Sebastian Bach: Bach-Werke-Verzeichnis (Schmieder)
!!!YOR: Bach Gesellschaft Edition xxxix
!!!ENC: Steven Rasmussen
!!!CDT: 1685/3//-1750/7/28/
!!!OCY: Deutschland
!!!YEC: Copyright (c) 1994, 2000 Center for Computer Assisted Research in the Humanities
!!!YEM: Rights to all derivative editions reserved
!!!YEN: United States of America
**kern	**silbe	**kern	**kern	**silbe	**kern	**silbe
*I:[SOPRANO]	*I:[SOPRANO]	*I:[ALTO]	*I:[TENORE]	*I:[TENORE]	*I:[BASSO]	*I:[BASSO]
*>[A,A,B]	*	*>[A,A,B]	*>[A,A,B]	*	*>[A,A,B]	*
*>A	*	*>A	*>A	*	*>A	*
*clefG2	*	*clefG2	*clefGv2	*	*clefF4	*
*k[b-]	*	*k[b-]	*k[b-]	*	*k[b-]	*
*d:	*	*d:	*d:	*	*d:	*
*M4/4	*	*M4/4	*M4/4	*	*M4/4	*
=1-	=1-	=1-	=1-	=1-	=1-	=1-
4a	Je-ach	4d	8FL	.	8DL	.
.	.	.	8GJ	.	8EJ	.
4a	-su,wie	4d	4A	.	4F	.
4g	mei-lang',	4e	8B-L	.	4C#	.
.	.	.	8AJ	.	.	.
4f	-neach	4d	4A	.	4D	.
=2	=2	=2	=2	=2	=2	=2
2e	Freu-lan-	4d	4B-	.	4GG	.
.	.	4c#	8AL	.	4AA	.
.	.	.	8GJ	.	.	.
2d;	-de,-ge	2A;	2F;	.	2DD;	.
=3	=3	=3	=3	=3	=3	=3
4a	mei-ist	4d	8fL	.	8DL	.
.	.	.	8eJ	.	8EJ	.
4bn	-nesdem	4G	4d	.	4F	.
4cc	Her-Her-	8gL	4c	.	8EL	.
.	.	8fJ	.	.	8FJ	.
4a	-zens-zen	4e	4c#	.	4G	.
=4	=4	=4	=4	=4	=4	=4
2dd	Wei-ban-	4a	8dL	.	8F#L	.
.	.	.	8eJ	.	8G#J	.
.	.	4bn	4f	.	4G#	.
2cc#;	-de,-ge,	2a;	2e;	.	2A;	.
=5	=5	=5	=5	=5	=5	=5
8ddL	Je-und	4g	4d	.	4B-	.
8eeJ	.	.	.	.	.	.
4ff	-su,ver-	8aL	4d	.	8AL	.
.	.	8b-J	.	.	8GJ	.
4ee	mei--langt	8gL	4d	.	4A	.
.	.	8b-J	.	.	.	.
4ee	-nenach	8aL	4c#	.	4AA	.
.	.	8gJ	.	.	.	.
=6	=6	=6	=6	=6	=6	=6
1dd;	Zier,dir.	1f;	1A;	.	1D;	.
=7:|!	=7:|!	=7:|!	=7:|!	=7:|!	=7:|!	=7:|!
*>B	*	*>B	*>B	*	*>B	*
4a	Got-	4f	4d	.	8DL	.
.	.	.	.	.	8EJ	.
4a	-tes	8fL	4c	.	4F	.
.	.	8e-J	.	.	.	.
4b-	Lamm,	8dL	8B-L	.	4G	.
.	.	8enJ	8cJ	.	.	.
4a	mein	4f	4d	.	8DL	.
.	.	.	.	.	8CJ	.
=8	=8	=8	=8	=8	=8	=8
4g	Br√§u-	4f	4d	.	8BB-L	.
.	.	.	.	.	8GGJ	.
4g	-ti-	4e	8cL	.	4C	.
.	.	.	8B-J	.	.	.
2f;	-gam,	2c;	2A;	.	2FF;	.
=9	=9	=9	=9	=9	=9	=9
4a	au-	4c	4A	.	4F	.
4bn	-sser	4f	8GL	.	8EL	.
.	.	.	8FJ	.	8DJ	.
8ccL	dir	8eL	4G	.	4E	.
8bJ	.	8dJ	.	.	.	.
4a	soll	4c	4A	.	4F	.
=10	=10	=10	=10	=10	=10	=10
4dd	mir	4f	8A	mir	4BBn	mir
.	.	.	8G#	auf	.	.
8ccL	auf	8eL	2A	Er-	8CL	auf
8bnJ	.	8fJ	.	.	8DJ	.
2b	Er-	4.e	.	.	2E	Er-
.	.	.	4G#	.	.	.
.	.	8d	.	.	.	.
=11	=11	=11	=11	=11	=11	=11
2a;	-den	2c#;	2A;	-den	2AA;	-den
4a	nichts	4d	8FL	.	8DL	.
.	.	.	8GJ	.	8EJ	.
4a	sonst	8dL	4A	.	4F	.
.	.	8c#J	.	.	.	.
=12	=12	=12	=12	=12	=12	=12
4g	lie-	8dL	8DL	.	8BBnL	.
.	.	8eJ	8AJ	.	8C#J	.
4f	-bers	8eL	4A	.	4D	.
.	.	8dJ	.	.	.	.
2e	wer-	8dL	8BnL	.	4GG#	.
.	.	16c#L	8E	.	.	.
.	.	16BnJJ	.	.	.	.
.	.	4c#	8A	.	4AA	.
.	.	.	8GJ	.	.	.
=13	=13	=13	=13	=13	=13	=13
1d;	-den.	1A;	1F#;	.	1DD;	.
==|!	==|!	==|!	==|!	==|!	==|!	==|!
*-	*-	*-	*-	*-	*-	*-
!!!RWG: Key is interpreted using the Humdrum key tool.
!!!END: 1994/07/08
!!!EMD: Converted from MuseData to Humdrum Dec 19, 2000, by Andreas Kornstaedt using muse2kern.
!!!EED: Craig Stuart Sapp
!!!EEV: 2024/03/31
!!!ONB: Some non-unicode characters
